svg/fluentui-system-icons/ic_fluent_cellular_4g_20_filled.svg

<svg width="20" height="20" viewBox="0 0 20 20" fill="none" xmlns="http://www.w3.org/2000/svg">
<path d="M9.49583 3L9.25027 3.00001C8.55993 3.00004 8.00032 3.55967 8.00032 4.25001V5.75008C8.00032 6.44043 8.55996 7.00008 9.25032 7.00008C9.94067 7.00008 10.5003 6.44043 10.5003 5.75008H9.50032C9.22417 5.75008 9.00032 5.52622 9.00032 5.25008C9.00032 4.97393 9.22417 4.75008 9.50032 4.75008H11.0003C11.2765 4.75008 11.5003 4.97393 11.5003 5.25008V5.75008C11.5003 6.99272 10.493 8.00008 9.25032 8.00008C8.00768 8.00008 7.00032 6.99272 7.00032 5.75008V4.25001C7.00032 3.0074 8.00762 2.00006 9.25023 2.00001L9.50018 2C9.52859 2 10.617 1.99983 11.1476 3.01918C11.2752 3.26412 11.18 3.56605 10.935 3.69357C10.6901 3.82109 10.3882 3.7259 10.2607 3.48097C10.1371 3.24364 9.95089 3.12557 9.78231 3.06272C9.63068 3.0062 9.50646 3.00049 9.49583 3ZM4.75032 13.0001C5.12687 13.0001 5.43862 13.2776 5.49218 13.6393L5.50032 13.7501V16.2501C5.50032 16.6643 5.16453 17.0001 4.75032 17.0001C4.37376 17.0001 4.06202 16.7226 4.00845 16.3609L4.00032 16.2501V13.7501C4.00032 13.3359 4.3361 13.0001 4.75032 13.0001ZM7.75032 11.0001C8.12687 11.0001 8.43862 11.2776 8.49218 11.6393L8.50032 11.7501V16.2501C8.50032 16.6643 8.16453 17.0001 7.75032 17.0001C7.37376 17.0001 7.06202 16.7226 7.00845 16.3609L7.00032 16.2501V11.7501C7.00032 11.3359 7.3361 11.0001 7.75032 11.0001ZM10.7503 9.0001C11.1269 9.0001 11.4386 9.27761 11.4922 9.63927L11.5003 9.7501V16.2501C11.5003 16.6643 11.1645 17.0001 10.7503 17.0001C10.3738 17.0001 10.062 16.7226 10.0084 16.3609L10.0003 16.2501V9.7501C10.0003 9.33588 10.3361 9.0001 10.7503 9.0001ZM13.7503 7.0001C14.1269 7.0001 14.4386 7.27761 14.4922 7.63927L14.5003 7.7501V16.2488C14.5003 16.663 14.1645 16.9988 13.7503 16.9988C13.3738 16.9988 13.062 16.7213 13.0084 16.3596L13.0003 16.2488V7.7501C13.0003 7.33588 13.3361 7.0001 13.7503 7.0001ZM16.7503 5.00003C17.1233 4.99661 17.4347 5.26825 17.4912 5.62563L17.5003 5.73523L17.4859 16.2506C17.4899 16.6605 17.1605 16.996 16.7503 17.0001C16.3774 17.0036 16.066 16.7319 16.0094 16.3746L16.0003 16.265L16.0147 5.74963C16.0107 5.33973 16.3401 5.00421 16.7503 5.00003ZM4.95816 2.70626C4.95816 2.02474 4.08323 1.74508 3.68794 2.30024L1.12906 5.89398C0.799092 6.35739 1.13039 7 1.69928 7H3.95816V7.499C3.95816 7.77515 4.18201 7.999 4.45816 7.999C4.7343 7.999 4.95816 7.77515 4.95816 7.499V7H5.50165C5.77779 7 6.00165 6.77614 6.00165 6.5C6.00165 6.22386 5.77779 6 5.50165 6H4.95816V2.70626ZM3.95816 3.64481V6H2.28117L3.95816 3.64481Z" fill="#212121"/>
</svg>

<svg xmlns="http://www.w3.org/2000/svg" width="20" height="20"><path d="M9.496 3H9.25C8.56 3 8 3.56 8 4.25v1.5a1.25 1.25 0 0 0 2.5 0h-1a.5.5 0 1 1 0-1H11a.5.5 0 0 1 .5.5v.5a2.25 2.25 0 1 1-4.5 0v-1.5A2.25 2.25 0 0 1 9.25 2h.25c.029 0 1.117 0 1.648 1.02a.5.5 0 1 1-.887.461.86.86 0 0 0-.479-.418A.968.968 0 0 0 9.496 3ZM4.75 13a.75.75 0 0 1 .742.64l.008.11v2.5a.75.75 0 0 1-1.492.11L4 16.25v-2.5a.75.75 0 0 1 .75-.75Zm3-2a.75.75 0 0 1 .742.64l.008.11v4.5a.75.75 0 0 1-1.492.11L7 16.25v-4.5a.75.75 0 0 1 .75-.75Zm3-2a.75.75 0 0 1 .742.64l.008.11v6.5a.75.75 0 0 1-1.492.11L10 16.25v-6.5a.75.75 0 0 1 .75-.75Zm3-2a.75.75 0 0 1 .742.64l.008.11v8.499a.75.75 0 0 1-1.492.11L13 16.25v-8.5a.75.75 0 0 1 .75-.75Zm3-2a.743.743 0 0 1 .741.626l.01.11-.015 10.515a.743.743 0 0 1-1.477.124l-.009-.11.015-10.515A.743.743 0 0 1 16.75 5ZM4.958 2.706c0-.681-.875-.96-1.27-.406L1.129 5.894A.7.7 0 0 0 1.7 7h2.26v.499a.5.5 0 1 0 1 0V7h.543a.5.5 0 0 0 0-1h-.544V2.706Zm-1 .939V6H2.281l1.677-2.355Z"/></svg>
